shapes/166.svg

<?xml version="1.0" encoding="UTF-8" standalone="no"?>
<svg width="80" height="68" xmlns="http://www.w3.org/2000/svg" xmlns:undefined="https://www.free-decompiler.com/flash">
 <g>
  <title>Layer 1</title>
  <g id="svg_1" transform="matrix(4.84384, 0, 0, 4.84449, 41.1305, 39.0828)">
   <path id="svg_2" fill-rule="evenodd" fill="#1d3030" d="m-0.1,-7.95q3.3,0 5.6,2.35q2.4,2.35 2.4,5.65l0,0.55l0,0.05l-0.15,0l0.15,0q-0.2,2.05 -2.4,3.55q-2.3,1.6 -5.6,1.6q-3.35,0 -5.75,-1.6q-2.1,-1.5 -2.25,-3.55l0.1,0l-0.1,0l0,-0.05l-0.05,-0.55q0,-3.3 2.3,-5.65q2.4,-2.35 5.75,-2.35"/>
   <path id="svg_3" fill-rule="evenodd" fill="#396060" d="m0.75,-4.2q0,-0.85 1.15,-0.8q0.6,-0.05 0.75,0.95q0,0.75 -0.85,0.75q-1.05,0 -1.05,-0.9m0.3,2.3q0,0.75 -1,0.8q-0.7,-0.05 -0.65,-0.7q-0.05,-0.85 0.95,-0.85q0.7,0 0.7,0.75m-6.4,1.75l-0.45,0.4l-0.35,-0.4l0.45,-0.35q0.3,0 0.35,0.35m0.4,-1.3q-1.1,-0.05 -1.1,-1.05q0,-3.65 5,-3.65q1.3,0 1.35,1.05q-0.05,1.45 -2.05,2.65q-1.75,1 -3.2,1m2.1,0.35q0.45,-0.05 0.5,0.4q0,0.4 -0.55,0.4l-0.5,-0.4q-0.05,-0.45 0.55,-0.4"/>
   <path id="svg_4" fill-rule="evenodd" fill="#cfe1e2" d="m0.85,3.7q0.2,0.4 0.85,0.4q0.65,0 0.95,-1.05q0.05,-0.9 -0.85,-0.9q-1.05,0 -1.05,1.05l0.1,0.5m-0.5,-0.5q0,-1.75 2.15,-1.75q1.2,0 1.2,1.25q0,1.9 -1.75,1.9q-1.1,-0.05 -1.45,-0.7l-0.15,-0.7m-2.6,-3q2.3,0 2.3,1.9q0,2.55 -2.75,2.55q-2.45,0 -2.45,-2q-0.05,-2.45 2.9,-2.45m1.85,2.35q0,-1.55 -1.55,-1.5q-1.75,-0.05 -1.75,1.5l0.2,0.8q0.4,0.65 1.4,0.7q1.65,-0.05 1.7,-1.5"/>
   <path id="svg_5" fill-rule="evenodd" fill="#ffffff" d="m0.85,3.7l-0.1,-0.5q0,-1.05 1.05,-1.05q0.9,0 0.85,0.9q-0.3,1.05 -0.95,1.05q-0.65,0 -0.85,-0.4m-1.25,-1.15q-0.05,1.45 -1.7,1.5q-1,-0.05 -1.4,-0.7l-0.2,-0.8q0,-1.55 1.75,-1.5q1.55,-0.05 1.55,1.5"/>
  </g>
 </g>
</svg>

<?xml version="1.0" encoding="UTF-8" standalone="no"?>
<svg xmlns:ffdec="https://www.free-decompiler.com/flash" xmlns:xlink="http://www.w3.org/1999/xlink" ffdec:objectType="shape" height="13.75px" width="16.05px" xmlns="http://www.w3.org/2000/svg">
  <g transform="matrix(1.0, 0.0, 0.0, 1.0, 8.15, 7.95)">
    <path d="M-0.1 -7.95 Q3.2 -7.95 5.5 -5.6 7.9 -3.25 7.9 0.05 L7.9 0.6 7.9 0.65 7.75 0.65 7.9 0.65 Q7.7 2.7 5.5 4.2 3.2 5.8 -0.1 5.8 -3.45 5.8 -5.85 4.2 -7.95 2.7 -8.1 0.65 L-8.0 0.65 -8.1 0.65 -8.1 0.6 -8.15 0.05 Q-8.15 -3.25 -5.85 -5.6 -3.45 -7.95 -0.1 -7.95" fill="#1d3030" fill-rule="evenodd" stroke="none"/>
    <path d="M0.75 -4.2 Q0.75 -5.05 1.9 -5.0 2.5 -5.05 2.65 -4.05 2.65 -3.3 1.8 -3.3 0.75 -3.3 0.75 -4.2 M1.05 -1.9 Q1.05 -1.15 0.05 -1.1 -0.65 -1.15 -0.6 -1.8 -0.65 -2.65 0.35 -2.65 1.05 -2.65 1.05 -1.9 M-5.35 -0.15 L-5.8 0.25 -6.15 -0.15 -5.7 -0.5 Q-5.4 -0.5 -5.35 -0.15 M-4.95 -1.45 Q-6.05 -1.5 -6.05 -2.5 -6.05 -6.15 -1.05 -6.15 0.25 -6.15 0.3 -5.1 0.25 -3.65 -1.75 -2.45 -3.5 -1.45 -4.95 -1.45 M-2.85 -1.1 Q-2.4 -1.15 -2.35 -0.7 -2.35 -0.3 -2.9 -0.3 L-3.4 -0.7 Q-3.45 -1.15 -2.85 -1.1" fill="#396060" fill-rule="evenodd" stroke="none"/>
    <path d="M0.85 3.7 Q1.05 4.1 1.7 4.1 2.35 4.1 2.65 3.05 2.7 2.15 1.8 2.15 0.75 2.15 0.75 3.2 L0.85 3.7 M0.35 3.2 Q0.35 1.45 2.5 1.45 3.7 1.45 3.7 2.7 3.7 4.6 1.95 4.6 0.85 4.55 0.5 3.9 L0.35 3.2 M-2.25 0.2 Q0.05 0.2 0.05 2.1 0.05 4.65 -2.7 4.65 -5.15 4.65 -5.15 2.65 -5.2 0.2 -2.25 0.2 M-0.4 2.55 Q-0.4 1.0 -1.95 1.05 -3.7 1.0 -3.7 2.55 L-3.5 3.35 Q-3.1 4.0 -2.1 4.05 -0.45 4.0 -0.4 2.55" fill="#cfe1e2" fill-rule="evenodd" stroke="none"/>
    <path d="M0.85 3.7 L0.75 3.2 Q0.75 2.15 1.8 2.15 2.7 2.15 2.65 3.05 2.35 4.1 1.7 4.1 1.05 4.1 0.85 3.7 M-0.4 2.55 Q-0.45 4.0 -2.1 4.05 -3.1 4.0 -3.5 3.35 L-3.7 2.55 Q-3.7 1.0 -1.95 1.05 -0.4 1.0 -0.4 2.55" fill="#ffffff" fill-rule="evenodd" stroke="none"/>
  </g>
</svg>
